img/toolbar/italic.svg

<?xml version="1.0" encoding="UTF-8" standalone="no"?>
<svg
   xmlns:dc="http://purl.org/dc/elements/1.1/"
   xmlns:cc="http://creativecommons.org/ns#"
   xmlns:rdf="http://www.w3.org/1999/02/22-rdf-syntax-ns#"
   xmlns:svg="http://www.w3.org/2000/svg"
   xmlns="http://www.w3.org/2000/svg"
   xmlns:sodipodi="http://sodipodi.sourceforge.net/DTD/sodipodi-0.dtd"
   xmlns:inkscape="http://www.inkscape.org/namespaces/inkscape"
   viewBox="0 0 24 24"
   version="1.1"
   id="svg11776"
   sodipodi:docname="italic.svg"
   width="24"
   height="24"
   inkscape:version="0.92.3 (2405546, 2018-03-11)">
  <metadata
     id="metadata11782">
    <rdf:RDF>
      <cc:Work
         rdf:about="">
        <dc:format>image/svg+xml</dc:format>
        <dc:type
           rdf:resource="http://purl.org/dc/dcmitype/StillImage" />
        <dc:title></dc:title>
      </cc:Work>
    </rdf:RDF>
  </metadata>
  <defs
     id="defs11780" />
  <sodipodi:namedview
     pagecolor="#ffffff"
     bordercolor="#666666"
     borderopacity="1"
     objecttolerance="10"
     gridtolerance="10"
     guidetolerance="10"
     inkscape:pageopacity="0"
     inkscape:pageshadow="2"
     inkscape:window-width="1374"
     inkscape:window-height="974"
     id="namedview11778"
     showgrid="true"
     inkscape:zoom="29.5"
     inkscape:cx="15.250947"
     inkscape:cy="10.381122"
     inkscape:window-x="46"
     inkscape:window-y="40"
     inkscape:window-maximized="0"
     inkscape:current-layer="svg11776">
    <inkscape:grid
       type="xygrid"
       id="grid11784" />
  </sodipodi:namedview>
  <path
     inkscape:connector-curvature="0"
     d="M 16.804423,5.9999999 H 14.692307 L 12,15.989316 h 1.573653 v 1.997863 H 7.112115 V 15.989316 H 9.22423 L 11.916538,5.9999999 H 10.342883 V 4.0021363 h 6.46154 z"
     id="path11857"
     style="fill:#2e5999;fill-opacity:1;stroke-width:0.99999994"
     sodipodi:nodetypes="ccccccccccccc" />
</svg>

<svg height="24" viewBox="0 0 24 24" width="24" xmlns="http://www.w3.org/2000/svg">
  <path d="m16.8 6h-2.11l-2.69 9.99h1.57v2h-6.46v-2h2.11l2.7-9.99h-1.58v-2h6.46z" fill="#2e5999"/>
</svg>
